source/img/subtitles.svg

<svg width="32" height="20" fill="none" xmlns="http://www.w3.org/2000/svg"><path d="M29 0H3a3 3 0 0 0-3 3v14a3 3 0 0 0 3 3h26a3 3 0 0 0 3-3V3a3 3 0 0 0-3-3ZM14.4 15.9l-1.7.1c-.7 0-1.4-.1-2-.3-.6-.2-1.2-.6-1.6-1-.4-.4-.8-1.1-1.1-1.9-.3-.8-.4-1.7-.4-2.8 0-1.1.2-2.1.5-2.9.3-.8.7-1.4 1.2-1.9s1.1-.8 1.7-1a10 10 0 0 1 3.5-.1l1.1.3-.4 1.9-.9-.3H13c-.9 0-1.6.3-2.2 1-.6.7-.8 1.7-.8 3l.2 1.6c.1.5.3.9.6 1.3l1 .8c.4.2.9.3 1.4.3l1.3-.1.9-.4.5 1.8-1.5.6Zm8.7 0-1.7.1c-.7 0-1.4-.1-2-.3-.6-.2-1.2-.6-1.6-1a4 4 0 0 1-1.1-1.9c-.3-.8-.4-1.7-.4-2.8 0-1.1.2-2.1.5-2.9.3-.8.7-1.4 1.2-1.9s1.1-.8 1.7-1a10 10 0 0 1 3.5-.1l1.1.3-.4 1.9L23 6h-1.3c-.9 0-1.6.3-2.2 1-.6.7-.8 1.7-.8 3l.2 1.6c.1.5.3.9.6 1.3l1 .8c.4.2.9.3 1.4.3l1.3-.1.9-.4.5 1.8-1.5.6Z" fill="#5C6870"/></svg>

<svg width="32" height="20" viewBox="0 0 32 20" fill="none" xmlns="http://www.w3.org/2000/svg">
<path d="M29 0H3C1.3 0 0 1.3 0 3V17C0 18.7 1.3 20 3 20H29C30.7 20 32 18.7 32 17V3C32 1.3 30.7 0 29 0ZM14.4 15.9C13.9 16 13.3 16 12.7 16C12 16 11.3 15.9 10.7 15.7C10.1 15.5 9.5 15.1 9.1 14.7C8.7 14.3 8.3 13.6 8 12.8C7.7 12 7.6 11.1 7.6 10C7.6 8.9 7.8 7.9 8.1 7.1C8.4 6.3 8.8 5.7 9.3 5.2C9.8 4.7 10.4 4.4 11 4.2C11.5 4.1 12.2 4 12.8 4C13.5 4 14 4 14.5 4.1C15 4.2 15.3 4.3 15.6 4.4L15.2 6.3C14.9 6.2 14.6 6.1 14.3 6C13.9 6 13.5 6 13 6C12.1 6 11.4 6.3 10.8 7C10.2 7.7 10 8.7 10 10C10 10.6 10.1 11.1 10.2 11.6C10.3 12.1 10.5 12.5 10.8 12.9C11.1 13.2 11.4 13.5 11.8 13.7C12.2 13.9 12.7 14 13.2 14C13.7 14 14.1 14 14.5 13.9C14.8 13.8 15.1 13.7 15.4 13.5L15.9 15.3C15.4 15.6 14.9 15.7 14.4 15.9ZM23.1 15.9C22.6 16 22 16 21.4 16C20.7 16 20 15.9 19.4 15.7C18.8 15.5 18.2 15.1 17.8 14.7C17.3 14.2 16.9 13.6 16.7 12.8C16.4 12 16.3 11.1 16.3 10C16.3 8.9 16.5 7.9 16.8 7.1C17.1 6.3 17.5 5.7 18 5.2C18.5 4.7 19.1 4.4 19.7 4.2C20.2 4.1 20.9 4 21.5 4C22.2 4 22.7 4 23.2 4.1C23.7 4.2 24 4.3 24.3 4.4L23.9 6.3C23.6 6.2 23.3 6.1 23 6C22.6 6 22.2 6 21.7 6C20.8 6 20.1 6.3 19.5 7C18.9 7.7 18.7 8.7 18.7 10C18.7 10.6 18.8 11.1 18.9 11.6C19 12.1 19.2 12.5 19.5 12.9C19.8 13.2 20.1 13.5 20.5 13.7C20.9 13.9 21.4 14 21.9 14C22.4 14 22.8 14 23.2 13.9C23.5 13.8 23.8 13.7 24.1 13.5L24.6 15.3C24.1 15.6 23.6 15.7 23.1 15.9Z" fill="#5C6870"/>
</svg>
